BEGIN
CLS
RESET
BGCOL 1.0 1.0 1.0
COL 0.0 0.0 0.0
MB 1.0
L 90
MF 1.0
R 90
REPEAT 6
	REPEAT 6
		REPEAT 5
			F 0.2
			L 72
		ENDREP

		REPEAT 5
			F 0.2
			R 72
		ENDREP


		F 0.2
		R 54

		REPEAT 7
			F 0.2
			L 72
		ENDREP
		R 108
		REPEAT 7
			F 0.2
			L 72
		ENDREP
		R 126
	ENDREP
	L 180
	MF 4.89336
	L 90
	MF 0.40776
	R 90
	MF 0.40776
	R 180
ENDREP
RESET
END
